assets/svgs/misc-grey/MiscGrey72.svg

<svg width="31" height="31" viewBox="0 0 31 31" fill="none" xmlns="http://www.w3.org/2000/svg">
<path fill-rule="evenodd" clip-rule="evenodd" d="M5.98901 3.87097C4.61001 3.87097 3.48901 4.99197 3.48901 6.37097V25.129C3.48901 26.508 4.61001 27.629 5.98901 27.629H24.747C26.125 27.629 27.247 26.508 27.247 25.129V6.37097C27.247 4.99197 26.125 3.87097 24.747 3.87097H5.98901ZM24.747 30.629H5.98901C2.95601 30.629 0.489014 28.161 0.489014 25.129V6.37097C0.489014 3.33897 2.95601 0.870972 5.98901 0.870972H24.747C27.779 0.870972 30.247 3.33897 30.247 6.37097V25.129C30.247 28.161 27.779 30.629 24.747 30.629Z" fill="#1A1919"/>
</svg>

<svg xmlns="http://www.w3.org/2000/svg" fill="none" viewBox="0 0 31 31"><path fill="#1A1919" fill-rule="evenodd" d="M5.989 3.871a2.502 2.502 0 00-2.5 2.5v18.758c0 1.379 1.121 2.5 2.5 2.5h18.758c1.378 0 2.5-1.121 2.5-2.5V6.371c0-1.379-1.122-2.5-2.5-2.5H5.989zm18.758 26.758H5.989a5.506 5.506 0 01-5.5-5.5V6.371c0-3.032 2.467-5.5 5.5-5.5h18.758c3.032 0 5.5 2.468 5.5 5.5v18.758c0 3.032-2.468 5.5-5.5 5.5z" clip-rule="evenodd"/></svg>
